!!!COM: Haydn, Franz Joseph 
!!!OPR: Symphony in D Major 
!!!OTL: Menuetto + Trio 
!!!OMV: 3 
!!!SCT: H I:31 
!!!SCA: Thematisch-bibliographisches Werkevererzeichnis (A. van Hoboken) 
!!!YOR: Breitkopf & Härtel Edition 
!!!EED: Frances Bennion 
!!!ENC: Frances Bennion 
!!!CDT: 1732/3/31/-1809/5/31/
!!!OCY: Österreich 
!!!YEC: Copyright (c) 1994, 2000 Center for Computer Assisted Research in the Humanities 
!!!YEM: Rights to all derivative editions reserved. 
!!!YEM: Refer to licensing agreement for further details. 
!!!YEN: United States of America 
**kern	**kern	**kern	**kern	**kern	**kern	**kern	**kern	**kern	**kern	**kern
*k[f#c#]	*k[f#c#]	*k[f#c#]	*k[f#c#]	*k[f#c#]	*k[]	*k[]	*k[]	*k[]	*k[f#c#]	*k[f#c#]
*D:	*D:	*D:	*D:	*D:	*D:	*D:	*D:	*D:	*D:	*D:
*clefF	*clefC3	*clefF4	*clefF	*clefF	*clefF	*clefF	*clefF	*clefF	*clefF	*clefF
*M3/4	*M3/4	*M3/4	*M3/4	*M3/4	*M3/4	*M3/4	*M3/4	*M3/4	*M3/4	*M3/4
*tb16	*tb16	*tb16	*tb16	*tb16	*tb16	*tb16	*tb16	*tb16	*tb16	*tb16
=1	=1	=1	=1	=1	=1	=1	=1	=1	=1	=1
4d	4d	4D	4d	4d	4cc	4g	4cc	4c	4d	4d
4dd	4dd	4d	4dd	4dd	4ee	4g	4cc	4c	4dd	4dd
4dd	4cc#	4c#	4dd	4dd	4ee	4g	4cc	4c	4dd	4dd
=2	=2	=2	=2	=2	=2	=2	=2	=2	=2	=2
4.dd	4b	4B	4.dd	4.dd	4ee	4cc	4cc	4c	4.dd	4.dd
.	4f#	4F#	.	.	2r	2r	2r	2r	.	.
16cc#	.	.	16cc#	16cc#	.	.	.	.	16cc#	16cc#
16dd	.	.	16dd	16dd	.	.	.	.	16dd	16dd
8.ee	4g#	4G#	8.ee	8.ee	.	.	.	.	8.ee	8.ee
16dd	.	.	16dd	16dd	.	.	.	.	16dd	16dd
=3	=3	=3	=3	=3	=3	=3	=3	=3	=3	=3
4cc#	4a	4A	4cc#	4cc#	4dd	4g	4dd	4G	4cc#	4cc#
4a	4A	4AA	4a	4a	4gg	4g	4dd	4G	4a	4a
4a	4A	4AA	4a	4a	4gg	4g	4dd	4G	4a	4a
=4	=4	=4	=4	=4	=4	=4	=4	=4	=4	=4
2a	4A	4AA	2a	2a	4gg	4g	4dd	4G	2a	2a
.	4a	4A	.	.	2r	2r	2r	2r	.	.
4r	4r	4r	4r	4r	.	.	.	.	16g	16g
.	.	.	.	.	.	.	.	.	16f#	16f#
.	.	.	.	.	.	.	.	.	16e	16e
.	.	.	.	.	.	.	.	.	16d	16d
=5	=5	=5	=5	=5	=5	=5	=5	=5	=5	=5
4r	4r	4r	4r	4r	4ff	2.r	4dd	2.r	4c#	4c#
4gg	4ee	4e	4gg	4gg	4ff	.	4dd	.	4gg	4gg
4gg	4dd	4d	4gg	4gg	4ff	.	4dd	.	4gg	4gg
=6	=6	=6	=6	=6	=6	=6	=6	=6	=6	=6
4.gg	4cc#	4c#	4.gg	4.gg	4ff	2.r	4dd	2.r	4.gg	4.gg
.	4a	4A	.	.	2r	.	2r	.	.	.
16ff#	.	.	16ff#	16ff#	.	.	.	.	16ff#	16ff#
16gg	.	.	16gg	16gg	.	.	.	.	16gg	16gg
8.aa	4cc#	4c#	8.aa	8.aa	.	.	.	.	8.aa	8.aa
16gg	.	.	16gg	16gg	.	.	.	.	16gg	16gg
=7	=7	=7	=7	=7	=7	=7	=7	=7	=7	=7
4ff#	4dd	4d	4ff#	4ff#	4ee	4c	4cc	4c	4ff#	4ff#
4dd	4d	4D	4dd	4dd	4ee	4cc	4cc	4c	4dd	4dd
4dd	4d	4D	4dd	4dd	4ee	4cc	4cc	4c	4dd	4dd
=8	=8	=8	=8	=8	=8	=8	=8	=8	=8	=8
8cc#	4d	4D	8cc#	8cc#	[2.ee	[2.cc	4cc	4c	8cc#	8cc#
8dd	.	.	8dd	8dd	.	.	.	.	8dd	8dd
8ee	4dd	4d	8ee	8ee	.	.	2r	2r	8ee	8ee
8dd	.	.	8dd	8dd	.	.	.	.	8dd	8dd
8ff#	4cc#	4c#	8ff#	8ff#	.	.	.	.	8ff#	8ff#
8r	.	.	8r	8r	.	.	.	.	8r	8r
=9	=9	=9	=9	=9	=9	=9	=9	=9	=9	=9
8cc#	4B	4BB	8cc#	8cc#	2.ee]	2.cc_	2.r	2.r	8cc#	8cc#
8dd	.	.	8dd	8dd	.	.	.	.	8dd	8dd
8ee	4b	4B	8ee	8ee	.	.	.	.	8ee	8ee
8dd	.	.	8dd	8dd	.	.	.	.	8dd	8dd
8ff#	4a	4A	8ff#	8ff#	.	.	.	.	8ff#	8ff#
8r	.	.	8r	8r	.	.	.	.	8r	8r
=10	=10	=10	=10	=10	=10	=10	=10	=10	=10	=10
8cc#	4g#	4G#	8cc#	8cc#	[2.dd	2.cc]	2.r	2.r	8cc#	8cc#
8dd	.	.	8dd	8dd	.	.	.	.	8dd	8dd
8ee	4e	4E	8ee	8ee	.	.	.	.	8ee	8ee
8dd	.	.	8dd	8dd	.	.	.	.	8dd	8dd
8b	4g#	4G#	8b	8b	.	.	.	.	8b	8b
8r	.	.	8r	8r	.	.	.	.	8r	8r
=11	=11	=11	=11	=11	=11	=11	=11	=11	=11	=11
8b	4a	4A	8b	8b	4dd]	4g	2.r	2.r	8b	8b
8cc#	.	.	8cc#	8cc#	.	.	.	.	8cc#	8cc#
8g#	4r	4r	8g#	8g#	2r	2r	.	.	8g#	8g#
8a	.	.	8a	8a	.	.	.	.	8a	8a
8b	4a	4A	8b	8b	.	.	.	.	8b	8b
8cc#	.	.	8cc#	8cc#	.	.	.	.	8cc#	8cc#
=12	=12	=12	=12	=12	=12	=12	=12	=12	=12	=12
8cc#	4b	4B	8cc#	8cc#	2.r	2.r	2.r	2.r	8cc#	8cc#
8dd	.	.	8dd	8dd	.	.	.	.	8dd	8dd
8a#	4r	4r	8a#	8a#	.	.	.	.	8a#	8a#
8b	.	.	8b	8b	.	.	.	.	8b	8b
8cc#	4b	4B	8cc#	8cc#	.	.	.	.	8cc#	8cc#
8dd	.	.	8dd	8dd	.	.	.	.	8dd	8dd
=13	=13	=13	=13	=13	=13	=13	=13	=13	=13	=13
8dd#	4cc#	4c#	8dd#	8dd#	4dd	2.r	4dd	2.r	8dd#	8dd#
8ee	.	.	8ee	8ee	.	.	.	.	8ee	8ee
4ee	4b	4B	4ee	4ee	4dd	.	4dd	.	4ee	4ee
4ee	4a	4A	4ee	4ee	4dd	.	4dd	.	4ee	4ee
=14	=14	=14	=14	=14	=14	=14	=14	=14	=14	=14
2ee	4g#	4G#	2ee	2ee	4dd	2.r	4dd	2.r	2ee	2ee
.	4e	4E	.	.	2r	.	2r	.	.	.
16ff#	4d	4D	16ff#	4r	.	.	.	.	16ff#	16ff#
16gg#	.	.	16gg#	.	.	.	.	.	16gg#	16gg#
16aa	.	.	16aa	.	.	.	.	.	16aa	16aa
16bb	.	.	16bb	.	.	.	.	.	16bb	16bb
=15	=15	=15	=15	=15	=15	=15	=15	=15	=15	=15
4ccc#	4c#	8C#	4ccc#	4a	4dd	4dd	4dd	4dd	4ccc#	4ccc#
.	.	8D	.	.	.	.	.	.	.	.
4cc#	4a	4E	4cc#	4a	4gg	4dd	4dd	4dd	4cc#	4cc#
4b	4g#	4E	4b	4g#	4ff#	4dd	4dd	4dd	4b	4b
=16	=16	=16	=16	=16	=16	=16	=16	=16	=16	=16
2a	4a	4AA	2a	2a	2gg	2g	2dd	2g	2a	2a
.	4A	4A	.	.	.	.	.	.	.	.
4r	4r	4AA	4r	4r	4r	4r	4r	4r	4r	4r
=17	=17	=17	=17	=17	=17	=17	=17	=17	=17	=17
4a	4r	4r	4a	4a	2.r	2.r	2.r	2.r	4a	4a
4aa	4f#	4F#	4aa	4aa	.	.	.	.	4aa	4aa
4aa	4e	4E	4aa	4aa	.	.	.	.	4aa	4aa
=18	=18	=18	=18	=18	=18	=18	=18	=18	=18	=18
8gg#	2d#	2D#	8gg#	8gg#	2.r	2.r	2.r	2.r	8gg#	8gg#
8aa	.	.	8aa	8aa	.	.	.	.	8aa	8aa
8bb	.	.	8bb	8bb	.	.	.	.	8bb	8bb
8aa	.	.	8aa	8aa	.	.	.	.	8aa	8aa
8ff#	4dd#	4d#	8ff#	8ff#	.	.	.	.	8ff#	8ff#
8r	.	.	8r	8r	.	.	.	.	8r	8r
=19	=19	=19	=19	=19	=19	=19	=19	=19	=19	=19
2.r	2ee	2e	2.r	2.r	2.r	2.r	2.r	2.r	8ff#	8ff#
.	.	.	.	.	.	.	.	.	8gg	8gg
.	.	.	.	.	.	.	.	.	4ee	4ee
.	4dd	4d	.	.	.	.	.	.	4ee	4ee
=20	=20	=20	=20	=20	=20	=20	=20	=20	=20	=20
2.r	2cc	2c	2.r	2.r	2.r	2.r	2.r	2.r	8ff#	8ff#
.	.	.	.	.	.	.	.	.	8gg	8gg
.	.	.	.	.	.	.	.	.	4ee	4ee
.	4g	4G	.	.	.	.	.	.	4ee	4ee
=21	=21	=21	=21	=21	=21	=21	=21	=21	=21	=21
2.r	2a	2A	2.r	2.r	2.r	2.r	2.r	2.r	4ff#	4ff#
.	.	.	.	.	.	.	.	.	8ff#	8ff#
.	.	.	.	.	.	.	.	.	8ee	8ee
.	4b	4B	.	.	.	.	.	.	8ff#	8ff#
.	.	.	.	.	.	.	.	.	8dd#	8dd#
=22	=22	=22	=22	=22	=22	=22	=22	=22	=22	=22
2.r	4e	4E	2.r	2.r	2.r	2.r	2.r	2.r	4ee	4ee
.	4ee	4e	.	.	.	.	.	.	2r	2r
.	4dd	4d	.	.	.	.	.	.	.	.
=23	=23	=23	=23	=23	=23	=23	=23	=23	=23	=23
8ff#	2cc#	2c#	8ff#	8ff#	2.dd	2.g	2.dd	2.g	8ff#	8ff#
8gg	.	.	8gg	8gg	.	.	.	.	8gg	8gg
8aa	.	.	8aa	8aa	.	.	.	.	8aa	8aa
8gg	.	.	8gg	8gg	.	.	.	.	8gg	8gg
8ee	4cc#	4c#	8ee	8ee	.	.	.	.	8ee	8ee
8r	.	.	8r	8r	.	.	.	.	8r	8r
=24	=24	=24	=24	=24	=24	=24	=24	=24	=24	=24
8ee	2dd	2d	8ee	8ee	2.ee	2.cc	2.ee	2.cc	8ee	8ee
8ff#	.	.	8ff#	8ff#	.	.	.	.	8ff#	8ff#
8aa	.	.	8aa	8aa	.	.	.	.	8aa	8aa
8ff#	.	.	8ff#	8ff#	.	.	.	.	8ff#	8ff#
8dd	4f#	4F#	8dd	8dd	.	.	.	.	8dd	8dd
8r	.	.	8r	8r	.	.	.	.	8r	8r
=25	=25	=25	=25	=25	=25	=25	=25	=25	=25	=25
2.r	2e	2E	2.r	2.r	2.dd	2.g	2.r	2.r	8f#	8f#
.	.	.	.	.	.	.	.	.	8g	8g
.	.	.	.	.	.	.	.	.	8a	8a
.	.	.	.	.	.	.	.	.	8g	8g
.	4c#	4C#	.	.	.	.	.	.	8e	8e
.	.	.	.	.	.	.	.	.	8r	8r
=26	=26	=26	=26	=26	=26	=26	=26	=26	=26	=26
2.r	2d	2D	2.r	2.r	2.ee	2.cc	2.r	2.r	8e	8e
.	.	.	.	.	.	.	.	.	8f#	8f#
.	.	.	.	.	.	.	.	.	8a	8a
.	.	.	.	.	.	.	.	.	8f#	8f#
.	4f#	4F#	.	.	.	.	.	.	8d	8d
.	.	.	.	.	.	.	.	.	8r	8r
=27	=27	=27	=27	=27	=27	=27	=27	=27	=27	=27
8aa#	4g	4G	8aa#	8aa#	4cc	4cc	2.r	2.r	8aa#	8aa#
8bb	.	.	8bb	8bb	.	.	.	.	8bb	8bb
8aa	4e	4E	8aa	8aa	2r	2r	.	.	8aa	8aa
8gg	.	.	8gg	8gg	.	.	.	.	8gg	8gg
8ff#	4g	4G	8ff#	8ff#	.	.	.	.	8ff#	8ff#
8ee	.	.	8ee	8ee	.	.	.	.	8ee	8ee
=28	=28	=28	=28	=28	=28	=28	=28	=28	=28	=28
2dd	4a	4A	2dd	2dd	2.r	2.r	2.r	2.r	2dd	2dd
.	4e	4E	.	.	.	.	.	.	.	.
4cc#	4A	4AA	4cc#	4cc#	.	.	.	.	4cc#	4cc#
=29	=29	=29	=29	=29	=29	=29	=29	=29	=29	=29
4d	4d	4D	4d	4d	4cc	4g	4cc	4c	4d	4d
4dd	4dd	4d	4dd	4dd	4ee	4g	4cc	4c	4dd	4dd
4dd	4cc#	4c#	4dd	4dd	4ee	4g	4cc	4c	4dd	4dd
=30	=30	=30	=30	=30	=30	=30	=30	=30	=30	=30
4.dd	4b	4B	4.dd	4.dd	4ee	4cc	4cc	4c	4.dd	4.dd
.	4f#	4F#	.	.	2r	2r	2r	2r	.	.
16cc#	.	.	16cc#	16cc#	.	.	.	.	16cc#	16cc#
16dd	.	.	16dd	16dd	.	.	.	.	16dd	16dd
8.ee	4g#	4G#	8.ee	8.ee	.	.	.	.	8.ee	8.ee
16dd	.	.	16dd	16dd	.	.	.	.	16dd	16dd
=31	=31	=31	=31	=31	=31	=31	=31	=31	=31	=31
4cc#	4a	4A	4cc#	4cc#	4dd	4g	4dd	4G	4cc#	4cc#
4a	4A	4AA	4a	4a	4gg	4g	4dd	4G	4a	4a
4a	4A	4AA	4a	4a	4gg	4g	4dd	4G	4a	4a
=32	=32	=32	=32	=32	=32	=32	=32	=32	=32	=32
2a	4A	4AA	2a	2a	4gg	4g	4dd	4G	2a	2a
.	4a	4A	.	.	2r	2r	2r	2r	.	.
4r	4r	4r	16g	16g	.	.	.	.	16g	16g
.	.	.	16f#	16f#	.	.	.	.	16f#	16f#
.	.	.	16e	16e	.	.	.	.	16e	16e
.	.	.	16d	16d	.	.	.	.	16d	16d
=33	=33	=33	=33	=33	=33	=33	=33	=33	=33	=33
4r	4r	4r	4c#	4c#	4ff	2.r	4dd	2.r	4c#	4c#
4gg	4ee	4e	4gg	4gg	4ff	.	4dd	.	4gg	4gg
4gg	4dd	4d	4gg	4gg	4ff	.	4dd	.	4gg	4gg
=34	=34	=34	=34	=34	=34	=34	=34	=34	=34	=34
4.gg	4cc#	4c#	4.gg	4.gg	4ff	2.r	4dd	2.r	4.gg	4.gg
.	4a	4A	.	.	2r	.	2r	.	.	.
16ff#	.	.	16ff#	16ff#	.	.	.	.	16ff#	16ff#
16gg	.	.	16gg	16gg	.	.	.	.	16gg	16gg
8.aa	4cc#	4c#	8.aa	8.aa	.	.	.	.	8.aa	8.aa
16gg	.	.	16gg	16gg	.	.	.	.	16gg	16gg
=35	=35	=35	=35	=35	=35	=35	=35	=35	=35	=35
8ee	4dd	4d	8ee	8ee	2.ee	2.cc	2.ee	2.cc	8ee	8ee
8ff#	.	.	8ff#	8ff#	.	.	.	.	8ff#	8ff#
8cc#	4r	4r	8cc#	8cc#	.	.	.	.	8cc#	8cc#
8dd	.	.	8dd	8dd	.	.	.	.	8dd	8dd
8ee	4d	4D	8ee	8ee	.	.	.	.	8ee	8ee
8ff#	.	.	8ff#	8ff#	.	.	.	.	8ff#	8ff#
=36	=36	=36	=36	=36	=36	=36	=36	=36	=36	=36
8ff#	4e	4E	8ff#	8ff#	2.ff	2.dd	2.ff	2.dd	8ff#	8ff#
8gg	.	.	8gg	8gg	.	.	.	.	8gg	8gg
8dd#	4r	4r	8dd#	8dd#	.	.	.	.	8dd#	8dd#
8ee	.	.	8ee	8ee	.	.	.	.	8ee	8ee
8ff#	4e	4E	8ff#	8ff#	.	.	.	.	8ff#	8ff#
8gg	.	.	8gg	8gg	.	.	.	.	8gg	8gg
=37	=37	=37	=37	=37	=37	=37	=37	=37	=37	=37
8gg#	4f#	4F#	8gg#	8gg#	4gg	4ee	4gg	4ee	8gg#	8gg#
8aa	.	.	8aa	8aa	.	.	.	.	8aa	8aa
4aa	4e	4E	4aa	4aa	4gg	4dd	4ff	4dd	4aa	4aa
4aa	4d	4D	4aa	4aa	4gg	4cc	4ee	4cc	4aa	4aa
=38	=38	=38	=38	=38	=38	=38	=38	=38	=38	=38
2aa	4c#	4C#	2aa	2aa	2gg	2.dd	2dd	2.g	2aa	2aa
.	4a	4A	.	.	.	.	.	.	.	.
16bb	4g	4G	16bb	16bb	4bb	.	4gg	.	16bb	16bb
16aa	.	.	16aa	16aa	.	.	.	.	16aa	16aa
16bb	.	.	16bb	16bb	.	.	.	.	16bb	16bb
16ccc#	.	.	16ccc#	16ccc#	.	.	.	.	16ccc#	16ccc#
=39	=39	=39	=39	=39	=39	=39	=39	=39	=39	=39
4ddd	8f#	8F#	4ddd	4ddd	4ccc	4ee	4gg	4c	4ddd	4ddd
.	8g	8G	.	.	.	.	.	.	.	.
4ff#	4a	4A	4ff#	4dd	4ee	4cc	4ee	4g	4ff#	4ff#
4ee	4A	4AA	4ee	4cc#	4dd	4g	4dd	4g	4ee	4ee
=40	=40	=40	=40	=40	=40	=40	=40	=40	=40	=40
4dd	4d	4D	4dd	4dd	4cc	4e	4cc	4c	4dd	4dd
2r	4A	4AA	2r	2r	2r	2r	2r	2r	2r	2r
.	4D	4DD	.	.	.	.	.	.	.	.
=41	=41	=41	=41	=41	=41	=41	=41	=41	=41	=41
2.r	4d	4d	4.ff#	4.dd	2ee	2cc	2.r	2.r	2.r	2.r
.	4D	4D	.	.	.	.	.	.	.	.
.	.	.	8aa	8ff#	.	.	.	.	.	.
.	4A	4A	8gg	8ee	4dd	4g	.	.	.	.
.	.	.	8ee	8cc#	.	.	.	.	.	.
=42	=42	=42	=42	=42	=42	=42	=42	=42	=42	=42
2.r	4d	4d	8dd	8dd	2cc	2e	2.r	2.r	2.r	2.r
.	.	.	8cc#	8cc#	.	.	.	.	.	.
.	4r	4r	8dd	8dd	.	.	.	.	.	.
.	.	.	8a	8a	.	.	.	.	.	.
.	4A	4A	8ee	8cc#	4dd	4g	.	.	.	.
.	.	.	8gg	8ee	.	.	.	.	.	.
=43	=43	=43	=43	=43	=43	=43	=43	=43	=43	=43
2.r	4d	4d	4.ff#	4.dd	2ee	2cc	2.r	2.r	2.r	2.r
.	4D	4D	.	.	.	.	.	.	.	.
.	.	.	8aa	8ff#	.	.	.	.	.	.
.	4A	4A	8gg	8ee	4dd	4g	.	.	.	.
.	.	.	8ee	8cc#	.	.	.	.	.	.
=44	=44	=44	=44	=44	=44	=44	=44	=44	=44	=44
2.r	4d	4d	4dd	4dd	4cc	4e	4r	4r	2.r	2.r
.	2r	2r	2r	2r	2r	2r	4ee	4cc	.	.
.	.	.	.	.	.	.	4ee	4cc	.	.
=45	=45	=45	=45	=45	=45	=45	=45	=45	=45	=45
2.r	4d	4d	2.r	2.r	2.r	2.r	2ee	2cc	4.f#	4.d
.	4D	4D	.	.	.	.	.	.	.	.
.	.	.	.	.	.	.	.	.	8a	8f#
.	4A	4A	.	.	.	.	4dd	4g	8g	8e
.	.	.	.	.	.	.	.	.	8e	8c#
=46	=46	=46	=46	=46	=46	=46	=46	=46	=46	=46
2.r	4d	4d	2.r	2.r	2.r	2.r	2cc	2e	8d	8d
.	.	.	.	.	.	.	.	.	8c#	8c#
.	4r	4r	.	.	.	.	.	.	8d	8d
.	.	.	.	.	.	.	.	.	8A	8A
.	4A	4A	.	.	.	.	4dd	4g	8e	8c#
.	.	.	.	.	.	.	.	.	8g	8e
=47	=47	=47	=47	=47	=47	=47	=47	=47	=47	=47
2.r	4d	4d	2.r	2.r	2.r	2.r	2ee	2cc	4.f#	4.d
.	4D	4D	.	.	.	.	.	.	.	.
.	.	.	.	.	.	.	.	.	8a	8f#
.	4A	4A	.	.	.	.	4dd	4g	8g	8e
.	.	.	.	.	.	.	.	.	8e	8c#
=48	=48	=48	=48	=48	=48	=48	=48	=48	=48	=48
2.r	4d	4d	2.r	2.r	2r	2.r	4cc	4e	4d	4d
.	4D	4D	.	.	.	.	4cc	4e	4r	2r
.	4r	4r	.	.	8cc	.	4cc	4e	8d	.
.	.	.	.	.	8dd	.	.	.	8e	.
=49	=49	=49	=49	=49	=49	=49	=49	=49	=49	=49
2.r	4d	4D	2.r	2.r	8ee	2.r	4cc	4e	8f#	4A
.	.	.	.	.	8dd	.	.	.	8e	.
.	4r	4r	.	.	8cc	.	2r	2r	8d	4r
.	.	.	.	.	8dd	.	.	.	8e	.
.	4d	4D	.	.	8ee	.	.	.	8f#	4A
.	.	.	.	.	8ff#	.	.	.	8g#	.
=50	=50	=50	=50	=50	=50	=50	=50	=50	=50	=50
2.r	4c#	4C#	2.r	2.r	8gg	2.r	4gg	2.r	8a	4A
.	.	.	.	.	8aa	.	.	.	8b	.
.	4r	4r	.	.	8bb	.	8gg	.	8cc#	8a
.	.	.	.	.	8ccc	.	8aa	.	8dd	8b
.	4A	4AA	.	.	4ddd	.	4bb	.	4ee	4cc#
=51	=51	=51	=51	=51	=51	=51	=51	=51	=51	=51
2.r	4d	4D	2.r	2.r	4ccc	2.r	4aa	4cc	4dd	4b
.	4e	4E	.	.	4bb	.	4gg	4dd	4cc#	4a
.	4e	4E	.	.	4aa	.	4ff#	4dd	4b	4g#
=52	=52	=52	=52	=52	=52	=52	=52	=52	=52	=52
4r	4A	4AA	2.r	2.r	4gg	8g	4gg	4g	4a	4a
.	.	.	.	.	.	8gg	.	.	.	.
8ee	4A	4AA	.	.	8dd	8g	2r	2r	2r	2r
8ff#	.	.	.	.	8ee	8gg	.	.	.	.
8gg#	4A	4AA	.	.	8ff#	8g	.	.	.	.
8aa	.	.	.	.	8gg	8gg	.	.	.	.
=53	=53	=53	=53	=53	=53	=53	=53	=53	=53	=53
8bb	4A	4AA	2.r	2.r	8aa	8g	2.r	2.r	4f#	4d
8ccc#	.	.	.	.	8bb	8gg	.	.	.	.
8ddd	4A	4AA	.	.	8ccc	8g	.	.	4r	4r
8bb	.	.	.	.	8aa	8gg	.	.	.	.
8aa	4A	4AA	.	.	8gg	8g	.	.	4g#	4B
8gg#	.	.	.	.	8ff#	8gg	.	.	.	.
=54	=54	=54	=54	=54	=54	=54	=54	=54	=54	=54
4aa	4A	4AA	2.r	2.r	4gg	8g	2.r	2.r	4a	4c#
.	.	.	.	.	.	8gg	.	.	.	.
8ee	4A	4AA	.	.	8dd	8g	.	.	2r	2r
8ff#	.	.	.	.	8ee	8gg	.	.	.	.
8gg#	4A	4AA	.	.	8ff#	8g	.	.	.	.
8aa	.	.	.	.	8gg	8gg	.	.	.	.
=55	=55	=55	=55	=55	=55	=55	=55	=55	=55	=55
8bb	4A	4AA	2.r	2.r	8aa	8g	2.r	2.r	4f#	4d
8ccc#	.	.	.	.	8bb	8gg	.	.	.	.
8ddd	4A	4AA	.	.	8ccc	8g	.	.	4r	4r
8bb	.	.	.	.	8aa	8gg	.	.	.	.
8aa	4A	4AA	.	.	8gg	8g	.	.	4g#	4B
8gg#	.	.	.	.	8ff#	8gg	.	.	.	.
=56	=56	=56	=56	=56	=56	=56	=56	=56	=56	=56
4aa	4A	4AA	2.r	2.r	4gg	4g	2.r	2.r	4a	4c#
2r	2r	2r	.	.	2r	2r	.	.	2r	2r
=57	=57	=57	=57	=57	=57	=57	=57	=57	=57	=57
2.r	2.r	4r	4.ee	[2.a	2dd	2g	2.r	2.r	2.r	2.r
.	.	4c#	.	.	.	.	.	.	.	.
.	.	.	8gg	.	.	.	.	.	.	.
.	.	4d	8ff#	.	4ee	4cc	.	.	.	.
.	.	.	8dd	.	.	.	.	.	.	.
=58	=58	=58	=58	=58	=58	=58	=58	=58	=58	=58
2.r	2.r	2A	8cc#	2.a_	4dd	4g	2.r	2.r	2.r	2.r
.	.	.	8dd	.	.	.	.	.	.	.
.	.	.	8ee	.	2r	2r	.	.	.	.
.	.	.	8cc#	.	.	.	.	.	.	.
.	.	4B	8dd	.	.	.	.	.	.	.
.	.	.	8b	.	.	.	.	.	.	.
=59	=59	=59	=59	=59	=59	=59	=59	=59	=59	=59
2.r	2.r	2c#	4a	4a]	4dd	4g	2.r	2.r	2.r	2.r
.	.	.	4gg	4ee	4ff	4dd	.	.	.	.
.	.	4d	4ff#	4dd	4ee	4cc	.	.	.	.
=60	=60	=60	=60	=60	=60	=60	=60	=60	=60	=60
2.r	2.r	4A	2ff#	2dd	2ee	2cc	2.r	2.r	2.r	2.r
.	.	4AA	.	.	.	.	.	.	.	.
.	.	4AA	4ee	4cc#	4dd	4g	.	.	.	.
=61	=61	=61	=61	=61	=61	=61	=61	=61	=61	=61
2.r	4r	4r	2.r	2.r	2.r	2.r	2dd	2g	4.e	[2.A
.	4c#	4C#	.	.	.	.	.	.	.	.
.	.	.	.	.	.	.	.	.	8g	.
.	4d	4D	.	.	.	.	4ee	4cc	8f#	.
.	.	.	.	.	.	.	.	.	8d	.
=62	=62	=62	=62	=62	=62	=62	=62	=62	=62	=62
2.r	2A	2AA	2.r	2.r	2.r	2.r	4dd	4g	8c#	2.A_
.	.	.	.	.	.	.	.	.	8d	.
.	.	.	.	.	.	.	2r	2r	8e	.
.	.	.	.	.	.	.	.	.	8c#	.
.	4B	4BB	.	.	.	.	.	.	8d	.
.	.	.	.	.	.	.	.	.	8B	.
=63	=63	=63	=63	=63	=63	=63	=63	=63	=63	=63
2.r	2c#	2C#	2.r	2.r	2.r	2.r	4dd	4g	4A	4A]
.	.	.	.	.	.	.	4ff	4dd	4g	4e
.	4d	4D	.	.	.	.	4ee	4cc	4f#	4d
=64	=64	=64	=64	=64	=64	=64	=64	=64	=64	=64
2.r	4A	4AA	2.r	2.r	2.r	2.r	2ee	2cc	2f#	2d
.	4a	4A	.	.	.	.	.	.	.	.
.	4a	4A	.	.	.	.	4dd	4g	4e	4c#
=65	=65	=65	=65	=65	=65	=65	=65	=65	=65	=65
2.r	4dd	4d	4.ff#	4.dd	2ee	2cc	2.r	2.r	2.r	2.r
.	4d	4D	.	.	.	.	.	.	.	.
.	.	.	8aa	8ff#	.	.	.	.	.	.
.	4a	4A	8gg	8ee	4dd	4g	.	.	.	.
.	.	.	8ee	8cc#	.	.	.	.	.	.
=66	=66	=66	=66	=66	=66	=66	=66	=66	=66	=66
2.r	4dd	4d	8dd	8dd	2cc	2e	2.r	2.r	2.r	2.r
.	.	.	8cc#	8cc#	.	.	.	.	.	.
.	4r	4r	8dd	8dd	.	.	.	.	.	.
.	.	.	8a	8a	.	.	.	.	.	.
.	4a	4A	8ee	8cc#	4dd	4g	.	.	.	.
.	.	.	8gg	8ee	.	.	.	.	.	.
=67	=67	=67	=67	=67	=67	=67	=67	=67	=67	=67
2.r	4dd	4d	4.ff#	4.dd	2ee	2cc	2.r	2.r	2.r	2.r
.	4d	4D	.	.	.	.	.	.	.	.
.	.	.	8aa	8ff#	.	.	.	.	.	.
.	4a	4A	8gg	8ee	4dd	4g	.	.	.	.
.	.	.	8ee	8cc#	.	.	.	.	.	.
=68	=68	=68	=68	=68	=68	=68	=68	=68	=68	=68
2.r	4dd	4d	4dd	4dd	4cc	4e	2r	2r	2r	2r
.	4d	4D	2r	2r	2r	2r	.	.	.	.
.	4f#	4F#	.	.	.	.	4gg	4cc	4a	4d
=69	=69	=69	=69	=69	=69	=69	=69	=69	=69	=69
2.r	2g	2G	2.r	2.r	2.r	2.r	8aa	2cc	8b	2d
.	.	.	.	.	.	.	8gg	.	8a	.
.	.	.	.	.	.	.	8ff	.	8g	.
.	.	.	.	.	.	.	8gg	.	8a	.
.	4e	4E	.	.	.	.	8aa	4ff	8b	4g
.	.	.	.	.	.	.	8bb	.	8cc#	.
=70	=70	=70	=70	=70	=70	=70	=70	=70	=70	=70
2.r	2d	2D	2.r	2.r	2.r	2.r	8ccc	2ee	8dd	2f#
.	.	.	.	.	.	.	8bb	.	8cc#	.
.	.	.	.	.	.	.	8ccc	.	8dd	.
.	.	.	.	.	.	.	8bb	.	8cc#	.
.	4d	4D	.	.	.	.	8ccc	4ee	8dd	4f#
.	.	.	.	.	.	.	8gg	.	8a	.
=71	=71	=71	=71	=71	=71	=71	=71	=71	=71	=71
2.r	4g	4G	2.r	2.r	2.r	2.r	4ff	4dd	4g	4e
.	4a	4A	.	.	.	.	4ee	4cc	4f#	4d
.	4A	4AA	.	.	.	.	4dd	4g	4e	4c#
=72	=72	=72	=72	=72	=72	=72	=72	=72	=72	=72
4dd	4d	4D	2.r	2.r	4cc	8c	4cc	4e	4d	4d
.	.	.	.	.	.	8cc	.	.	.	.
8ee	4d	4D	.	.	8dd	8c	2r	2r	4r	4r
8ff#	.	.	.	.	8ee	8cc	.	.	.	.
8gg	4d	4D	.	.	8ff	8c	.	.	4a	4f#
8aa	.	.	.	.	8gg	8cc	.	.	.	.
=73	=73	=73	=73	=73	=73	=73	=73	=73	=73	=73
2bb	4d	4D	2.r	2.r	2aa	8c	2.r	2.r	4b	4g
.	.	.	.	.	.	8cc	.	.	.	.
.	4d	4D	.	.	.	8c	.	.	4r	4r
.	.	.	.	.	.	8cc	.	.	.	.
4ccc#	4d	4D	.	.	4bb	8c	.	.	4cc#	4e
.	.	.	.	.	.	8cc	.	.	.	.
=74	=74	=74	=74	=74	=74	=74	=74	=74	=74	=74
8ddd	4d	4D	2.r	2.r	8ccc	8c	2.r	2.r	4dd	4f#
8dd	.	.	.	.	8cc	8cc	.	.	.	.
8ee	4d	4D	.	.	8dd	8c	.	.	4r	4r
8ff#	.	.	.	.	8ee	8cc	.	.	.	.
8gg	4d	4D	.	.	8ff	8c	.	.	4a	4f#
8aa	.	.	.	.	8gg	8cc	.	.	.	.
=75	=75	=75	=75	=75	=75	=75	=75	=75	=75	=75
2bb	4d	4D	2.r	2.r	2aa	8c	2.r	2.r	4b	4g
.	.	.	.	.	.	8cc	.	.	.	.
.	4d	4D	.	.	.	8c	.	.	4r	4r
.	.	.	.	.	.	8cc	.	.	.	.
4ccc#	4d	4D	.	.	4bb	8c	.	.	4cc#	4e
.	.	.	.	.	.	8cc	.	.	.	.
=76	=76	=76	=76	=76	=76	=76	=76	=76	=76	=76
4ddd	4d	4D	2.r	2.r	4ccc	4c	2.r	2.r	4dd	4f#
2r	2r	2r	.	.	2r	2r	.	.	2r	2r
==	==	==	==	==	==	==	==	==	==	==
*-	*-	*-	*-	*-	*-	*-	*-	*-	*-	*-
!!!RWG1: This file contains only pitch and duration data.
!!!RWG2: Transposing instruments are not transposed.
!!!RWG3: Spines may have incompatible meters.
!!!RWG4: Durations of rests and tied notes may be interpreted.
!!!RWG: Key is interpreted using the Humdrum key tool.
!!!OPT: Hornsignal 
!!!AFT: stage1 
!!!END: 2000/12/13
!!format changes:
!!content changes:
!!public access: complete
!!!KEY: 326816874
!!!EMD: Converted from MuseData to Humdrum Dec 16, 2000, by Andreas Kornstaedt using muse2kern.
